apps/128/preferences-desktop-wallpaper.svg

<?xml version="1.0" encoding="UTF-8" standalone="no"?>
<!-- Created with Inkscape (http://www.inkscape.org/) -->

<svg
   xmlns:dc="http://purl.org/dc/elements/1.1/"
   xmlns:cc="http://creativecommons.org/ns#"
   xmlns:rdf="http://www.w3.org/1999/02/22-rdf-syntax-ns#"
   xmlns:svg="http://www.w3.org/2000/svg"
   xmlns="http://www.w3.org/2000/svg"
   xmlns:xlink="http://www.w3.org/1999/xlink"
   xmlns:sodipodi="http://sodipodi.sourceforge.net/DTD/sodipodi-0.dtd"
   xmlns:inkscape="http://www.inkscape.org/namespaces/inkscape"
   version="1.0"
   width="128"
   height="128"
   id="svg2567"
   inkscape:version="0.92.4 5da689c313, 2019-01-14"
   sodipodi:docname="preferences-desktop-wallpaper.svg">
  <metadata
     id="metadata172341">
    <rdf:RDF>
      <cc:Work
         rdf:about="">
        <dc:format>image/svg+xml</dc:format>
        <dc:type
           rdf:resource="http://purl.org/dc/dcmitype/StillImage" />
      </cc:Work>
    </rdf:RDF>
  </metadata>
  <sodipodi:namedview
     pagecolor="#ffffff"
     bordercolor="#666666"
     borderopacity="1"
     objecttolerance="10"
     gridtolerance="10"
     guidetolerance="10"
     inkscape:pageopacity="0"
     inkscape:pageshadow="2"
     inkscape:window-width="1680"
     inkscape:window-height="990"
     id="namedview172339"
     showgrid="false"
     inkscape:zoom="4.3641747"
     inkscape:cx="64"
     inkscape:cy="50.251696"
     inkscape:window-x="0"
     inkscape:window-y="31"
     inkscape:window-maximized="1"
     inkscape:current-layer="svg2567" />
  <defs
     id="defs2569">
    <linearGradient
       id="linearGradient10691-1">
      <stop
         id="stop10693-3"
         style="stop-color:#000000;stop-opacity:1"
         offset="0" />
      <stop
         id="stop10695-1"
         style="stop-color:#000000;stop-opacity:0"
         offset="1" />
    </linearGradient>
    <radialGradient
       cx="6.702713"
       cy="73.615715"
       r="7.228416"
       fx="6.702713"
       fy="73.615715"
       id="radialGradient3226"
       xlink:href="#linearGradient10691-1"
       gradientUnits="userSpaceOnUse"
       gradientTransform="matrix(5.2570306,0,0,1.1067431,28.763637,34.526312)" />
    <linearGradient
       id="linearGradient3924">
      <stop
         id="stop3926"
         style="stop-color:#464646;stop-opacity:1"
         offset="0" />
      <stop
         id="stop3928"
         style="stop-color:#787878;stop-opacity:1"
         offset="0.10079991" />
      <stop
         id="stop3930"
         style="stop-color:#828282;stop-opacity:1"
         offset="0.56052971" />
      <stop
         id="stop3932"
         style="stop-color:#828282;stop-opacity:1"
         offset="0.64530003" />
      <stop
         id="stop3934"
         style="stop-color:#646464;stop-opacity:1"
         offset="1" />
    </linearGradient>
    <linearGradient
       x1="61.968769"
       y1="35.053661"
       x2="61.968769"
       y2="43.378311"
       id="linearGradient3223"
       xlink:href="#linearGradient3924"
       gradientUnits="userSpaceOnUse"
       gradientTransform="matrix(2.6843014,0,0,2.5456046,-102.42668,7.7670696)" />
    <linearGradient
       id="linearGradient3912">
      <stop
         id="stop3914"
         style="stop-color:#787878;stop-opacity:1"
         offset="0" />
      <stop
         id="stop3916"
         style="stop-color:#b4b4b4;stop-opacity:1"
         offset="0.35046947" />
      <stop
         id="stop3918"
         style="stop-color:#c8c8c8;stop-opacity:1"
         offset="0.49417919" />
      <stop
         id="stop3920"
         style="stop-color:#e6e6e6;stop-opacity:1"
         offset="0.58907253" />
      <stop
         id="stop3922"
         style="stop-color:#8c8c8c;stop-opacity:1"
         offset="1" />
    </linearGradient>
    <linearGradient
       x1="361.10583"
       y1="87.050117"
       x2="361.10583"
       y2="94.396416"
       id="linearGradient3221"
       xlink:href="#linearGradient3912"
       gradientUnits="userSpaceOnUse"
       gradientTransform="matrix(2.6746618,0,0,2.5459707,-893.97886,-122.09114)" />
    <linearGradient
       id="linearGradient3342">
      <stop
         id="stop3344"
         style="stop-color:#ffffff;stop-opacity:0"
         offset="0" />
      <stop
         id="stop3346"
         style="stop-color:#ffffff;stop-opacity:1"
         offset="1" />
    </linearGradient>
    <linearGradient
       x1="15.573899"
       y1="46.971004"
       x2="23.578077"
       y2="46.971004"
       id="linearGradient3218"
       xlink:href="#linearGradient3342"
       gradientUnits="userSpaceOnUse"
       gradientTransform="matrix(3.1282824,0,0,2.6666665,-9.7588846,-7.4060032)"
       spreadMethod="reflect" />
    <linearGradient
       id="linearGradient3236">
      <stop
         id="stop3240"
         style="stop-color:#bebebe;stop-opacity:1"
         offset="0" />
      <stop
         id="stop3244"
         style="stop-color:#e6e6e6;stop-opacity:1"
         offset="1" />
    </linearGradient>
    <linearGradient
       x1="64"
       y1="98.144615"
       x2="64"
       y2="9.0004082"
       id="linearGradient3234"
       xlink:href="#linearGradient3236"
       gradientUnits="userSpaceOnUse" />
    <linearGradient
       id="linearGradient6712">
      <stop
         id="stop6714"
         style="stop-color:#3c3c3c;stop-opacity:1"
         offset="0" />
      <stop
         id="stop6716"
         style="stop-color:#1e1e1e;stop-opacity:1"
         offset="1" />
    </linearGradient>
    <radialGradient
       cx="12.244348"
       cy="4.8630676"
       r="20.999998"
       fx="12.244348"
       fy="4.8630676"
       id="radialGradient3257"
       xlink:href="#linearGradient6712"
       gradientUnits="userSpaceOnUse"
       gradientTransform="matrix(3.7780358,0.05354761,-0.03517637,2.9933064,-14.20152,17.604778)" />
    <linearGradient
       id="linearGradient2867-449-88-871-390-598-476-591-434-148">
      <stop
         id="stop4627"
         style="stop-color:#51cfee;stop-opacity:1"
         offset="0" />
      <stop
         id="stop4629"
         style="stop-color:#49a3d2;stop-opacity:1"
         offset="0.26238" />
      <stop
         id="stop4631"
         style="stop-color:#3470b4;stop-opacity:1"
         offset="0.704952" />
      <stop
         id="stop4633"
         style="stop-color:#1b5699;stop-opacity:1"
         offset="1" />
    </linearGradient>
    <radialGradient
       cx="2.6082575"
       cy="-16.638557"
       r="23"
       fx="2.6082575"
       fy="-16.638557"
       id="radialGradient2545"
       xlink:href="#linearGradient2867-449-88-871-390-598-476-591-434-148"
       gradientUnits="userSpaceOnUse"
       gradientTransform="matrix(2.4594247e-7,3.8244676,-6.1090021,1.7277067e-7,-37.644983,13.120198)" />
    <linearGradient
       id="linearGradient6592-2-7">
      <stop
         id="stop6594-0-2"
         style="stop-color:#ffffff;stop-opacity:0.27450982"
         offset="0" />
      <stop
         id="stop6596-2-5"
         style="stop-color:#ffffff;stop-opacity:0"
         offset="1" />
    </linearGradient>
    <linearGradient
       x1="12.9375"
       y1="8.4375"
       x2="15.25"
       y2="19.8125"
       id="linearGradient3254"
       xlink:href="#linearGradient6592-2-7"
       gradientUnits="userSpaceOnUse"
       gradientTransform="matrix(2.9523812,0,0,3.5999974,-6.8571431,-0.7999939)" />
    <filter
       height="1.2150327"
       y="-0.10751635"
       width="1.1734241"
       x="-0.086712047"
       id="filter3198">
      <feGaussianBlur
         id="feGaussianBlur3200"
         stdDeviation="0.71710775"
         inkscape:collect="always" />
    </filter>
    <linearGradient
       id="linearGradient8589-4-3">
      <stop
         id="stop8591-7-2"
         style="stop-color:#fefefe;stop-opacity:1"
         offset="0" />
      <stop
         id="stop8593-2-4"
         style="stop-color:#cbcbcb;stop-opacity:1"
         offset="1" />
    </linearGradient>
    <linearGradient
       x1="32.892288"
       y1="8.0590115"
       x2="36.358372"
       y2="5.4565363"
       id="linearGradient2565"
       xlink:href="#linearGradient8589-4-3"
       gradientUnits="userSpaceOnUse"
       gradientTransform="matrix(3.7541116,0,0,4.0357898,-35.647124,9.9107789)" />
  </defs>
  <path
     inkscape:connector-curvature="0"
     style="display:inline;overflow:visible;visibility:visible;fill:url(#linearGradient3221);fill-opacity:1;fill-rule:nonzero;stroke:#000000;stroke-width:0.1;stroke-linecap:round;stroke-linejoin:round;stroke-miterlimit:4;stroke-dasharray:none;stroke-dashoffset:0.5;stroke-opacity:0.39215687;marker:none;enable-background:new"
     id="rect1789"
     d="m 47.5,97.499139 c 0,0 0.397503,10.838601 -1.50061,13.364911 -1.898112,2.52633 -5.675011,4.13662 -5.675011,4.13662 -2.423623,0.2654 -2.443672,3.5002 0,3.5002 H 87.67543 c 2.443672,0 2.424131,-3.23819 0,-3.5002 0,0 -3.776735,-1.6103 -5.674819,-4.13662 C 80.102525,108.33775 80.5,97.499139 80.5,97.499139 H 47.516944 Z" />
  <path
     inkscape:connector-curvature="0"
     style="fill:none;stroke:url(#linearGradient3218);stroke-width:1px;stroke-linecap:square;stroke-linejoin:miter;stroke-opacity:1"
     id="path3340"
     d="M 40.524811,117.85 H 87.475189" />
  <rect
     style="fill:#1a1a1a;fill-opacity:1;stroke:none;stroke-width:1;stroke-linecap:round;stroke-linejoin:round;stroke-miterlimit:4;stroke-dasharray:none;stroke-dashoffset:0.5;stroke-opacity:1"
     id="rect2722"
     y="9.5005283"
     x="1.5001197"
     ry="2.6666665"
     rx="2.7777872"
     height="87.999352"
     width="124.99976" />
  <rect
     style="display:inline;fill:url(#radialGradient3257);fill-opacity:1;fill-rule:evenodd;stroke:none;enable-background:new"
     id="rect2716"
     y="16"
     x="8"
     height="75"
     width="112" />
  <rect
     style="opacity:0.3;fill:none;fill-opacity:1;stroke:#000000;stroke-width:1.00023937;stroke-linecap:round;stroke-linejoin:round;stroke-miterlimit:4;stroke-dasharray:none;stroke-dashoffset:0.5;stroke-opacity:1"
     id="rect3248"
     y="10.500322"
     x="2.5001197"
     ry="2.6060724"
     rx="2.7333424"
     height="85.999763"
     width="122.99976" />
  <path
     inkscape:connector-curvature="0"
     style="display:inline;overflow:visible;visibility:visible;fill:url(#radialGradient2545);fill-opacity:1;fill-rule:evenodd;stroke:none;stroke-width:1.00213289;stroke-linecap:round;stroke-linejoin:round;stroke-miterlimit:4;stroke-dasharray:none;stroke-dashoffset:0;stroke-opacity:1;marker:none;marker-start:none;marker-mid:none;marker-end:none;enable-background:accumulate"
     id="path4322"
     d="m 8,16 c 21.90907,0 44.208394,0.242424 66.117462,0.242424 C 77.96081,17.45587 114.60833,43.959871 120,53.531901 120,82.828638 120,61.703264 120,91 88.130042,91 39.869953,91 8,91 8,53.499984 8,53.500013 8,16 Z" />
  <path
     inkscape:connector-curvature="0"
     style="display:inline;fill:url(#linearGradient2565);fill-opacity:1;fill-rule:evenodd;stroke:#000000;stroke-opacity:0.39215687;stroke-width:0.1;stroke-miterlimit:4;stroke-dasharray:none"
     id="path4893"
     d="m 72.357285,16.15741 c 9.330417,1.723437 8.349731,31.975251 8.349731,31.975251 0,0 38.360904,-1.996176 39.289494,6.908832 C 122.40834,49.801741 92.127698,23.315065 77.234302,17.351212 75.320568,16.584886 73.660893,16.15741 72.357285,16.15741 Z" />
</svg>

<?xml version="1.0" encoding="UTF-8" standalone="no"?>
<!-- Created with Inkscape (http://www.inkscape.org/) -->

<svg
   xmlns:dc="http://purl.org/dc/elements/1.1/"
   xmlns:cc="http://creativecommons.org/ns#"
   xmlns:rdf="http://www.w3.org/1999/02/22-rdf-syntax-ns#"
   xmlns:svg="http://www.w3.org/2000/svg"
   xmlns="http://www.w3.org/2000/svg"
   xmlns:xlink="http://www.w3.org/1999/xlink"
   xmlns:sodipodi="http://sodipodi.sourceforge.net/DTD/sodipodi-0.dtd"
   xmlns:inkscape="http://www.inkscape.org/namespaces/inkscape"
   version="1.0"
   width="128"
   height="128"
   id="svg2567"
   inkscape:version="0.48.3.1 r9886"
   sodipodi:docname="wallpaper.svg">
  <metadata
     id="metadata172341">
    <rdf:RDF>
      <cc:Work
         rdf:about="">
        <dc:format>image/svg+xml</dc:format>
        <dc:type
           rdf:resource="http://purl.org/dc/dcmitype/StillImage" />
      </cc:Work>
    </rdf:RDF>
  </metadata>
  <sodipodi:namedview
     pagecolor="#ffffff"
     bordercolor="#666666"
     borderopacity="1"
     objecttolerance="10"
     gridtolerance="10"
     guidetolerance="10"
     inkscape:pageopacity="0"
     inkscape:pageshadow="2"
     inkscape:window-width="640"
     inkscape:window-height="480"
     id="namedview172339" />
  <defs
     id="defs2569">
    <linearGradient
       id="linearGradient10691-1">
      <stop
         id="stop10693-3"
         style="stop-color:#000000;stop-opacity:1"
         offset="0" />
      <stop
         id="stop10695-1"
         style="stop-color:#000000;stop-opacity:0"
         offset="1" />
    </linearGradient>
    <radialGradient
       cx="6.702713"
       cy="73.615715"
       r="7.228416"
       fx="6.702713"
       fy="73.615715"
       id="radialGradient3226"
       xlink:href="#linearGradient10691-1"
       gradientUnits="userSpaceOnUse"
       gradientTransform="matrix(5.2570306,0,0,1.1067431,28.763637,34.526312)" />
    <linearGradient
       id="linearGradient3924">
      <stop
         id="stop3926"
         style="stop-color:#464646;stop-opacity:1"
         offset="0" />
      <stop
         id="stop3928"
         style="stop-color:#787878;stop-opacity:1"
         offset="0.10079991" />
      <stop
         id="stop3930"
         style="stop-color:#828282;stop-opacity:1"
         offset="0.56052971" />
      <stop
         id="stop3932"
         style="stop-color:#828282;stop-opacity:1"
         offset="0.64530003" />
      <stop
         id="stop3934"
         style="stop-color:#646464;stop-opacity:1"
         offset="1" />
    </linearGradient>
    <linearGradient
       x1="61.968769"
       y1="35.053661"
       x2="61.968769"
       y2="43.378311"
       id="linearGradient3223"
       xlink:href="#linearGradient3924"
       gradientUnits="userSpaceOnUse"
       gradientTransform="matrix(2.6843014,0,0,2.5456046,-102.42668,7.7670696)" />
    <linearGradient
       id="linearGradient3912">
      <stop
         id="stop3914"
         style="stop-color:#787878;stop-opacity:1"
         offset="0" />
      <stop
         id="stop3916"
         style="stop-color:#b4b4b4;stop-opacity:1"
         offset="0.35046947" />
      <stop
         id="stop3918"
         style="stop-color:#c8c8c8;stop-opacity:1"
         offset="0.49417919" />
      <stop
         id="stop3920"
         style="stop-color:#e6e6e6;stop-opacity:1"
         offset="0.58907253" />
      <stop
         id="stop3922"
         style="stop-color:#8c8c8c;stop-opacity:1"
         offset="1" />
    </linearGradient>
    <linearGradient
       x1="361.10583"
       y1="87.050117"
       x2="361.10583"
       y2="94.396416"
       id="linearGradient3221"
       xlink:href="#linearGradient3912"
       gradientUnits="userSpaceOnUse"
       gradientTransform="matrix(2.6746618,0,0,2.5459707,-893.97886,-122.09114)" />
    <linearGradient
       id="linearGradient3342">
      <stop
         id="stop3344"
         style="stop-color:#ffffff;stop-opacity:0"
         offset="0" />
      <stop
         id="stop3346"
         style="stop-color:#ffffff;stop-opacity:1"
         offset="1" />
    </linearGradient>
    <linearGradient
       x1="15.573899"
       y1="46.971004"
       x2="23.578077"
       y2="46.971004"
       id="linearGradient3218"
       xlink:href="#linearGradient3342"
       gradientUnits="userSpaceOnUse"
       gradientTransform="matrix(3.1282824,0,0,2.6666665,-9.7588846,-7.7560032)"
       spreadMethod="reflect" />
    <linearGradient
       id="linearGradient3236">
      <stop
         id="stop3240"
         style="stop-color:#bebebe;stop-opacity:1"
         offset="0" />
      <stop
         id="stop3244"
         style="stop-color:#e6e6e6;stop-opacity:1"
         offset="1" />
    </linearGradient>
    <linearGradient
       x1="64"
       y1="98.144615"
       x2="64"
       y2="9.0004082"
       id="linearGradient3234"
       xlink:href="#linearGradient3236"
       gradientUnits="userSpaceOnUse" />
    <linearGradient
       id="linearGradient6712">
      <stop
         id="stop6714"
         style="stop-color:#3c3c3c;stop-opacity:1"
         offset="0" />
      <stop
         id="stop6716"
         style="stop-color:#1e1e1e;stop-opacity:1"
         offset="1" />
    </linearGradient>
    <radialGradient
       cx="12.244348"
       cy="4.8630676"
       r="20.999998"
       fx="12.244348"
       fy="4.8630676"
       id="radialGradient3257"
       xlink:href="#linearGradient6712"
       gradientUnits="userSpaceOnUse"
       gradientTransform="matrix(3.7780358,5.3547614e-2,-3.5176373e-2,2.9933064,-14.20152,17.604778)" />
    <linearGradient
       id="linearGradient2867-449-88-871-390-598-476-591-434-148">
      <stop
         id="stop4627"
         style="stop-color:#51cfee;stop-opacity:1"
         offset="0" />
      <stop
         id="stop4629"
         style="stop-color:#49a3d2;stop-opacity:1"
         offset="0.26238" />
      <stop
         id="stop4631"
         style="stop-color:#3470b4;stop-opacity:1"
         offset="0.704952" />
      <stop
         id="stop4633"
         style="stop-color:#1b5699;stop-opacity:1"
         offset="1" />
    </linearGradient>
    <radialGradient
       cx="2.6082575"
       cy="-16.638557"
       r="23"
       fx="2.6082575"
       fy="-16.638557"
       id="radialGradient2545"
       xlink:href="#linearGradient2867-449-88-871-390-598-476-591-434-148"
       gradientUnits="userSpaceOnUse"
       gradientTransform="matrix(2.4594247e-7,3.8244676,-6.1090021,1.7277067e-7,-37.644983,13.120198)" />
    <linearGradient
       id="linearGradient6592-2-7">
      <stop
         id="stop6594-0-2"
         style="stop-color:#ffffff;stop-opacity:0.27450982"
         offset="0" />
      <stop
         id="stop6596-2-5"
         style="stop-color:#ffffff;stop-opacity:0"
         offset="1" />
    </linearGradient>
    <linearGradient
       x1="12.9375"
       y1="8.4375"
       x2="15.25"
       y2="19.8125"
       id="linearGradient3254"
       xlink:href="#linearGradient6592-2-7"
       gradientUnits="userSpaceOnUse"
       gradientTransform="matrix(2.9523812,0,0,3.5999974,-6.8571431,-0.7999939)" />
    <filter
       height="1.2150327"
       y="-0.10751635"
       width="1.1734241"
       x="-0.086712047"
       id="filter3198">
      <feGaussianBlur
         id="feGaussianBlur3200"
         stdDeviation="0.71710775"
         inkscape:collect="always" />
    </filter>
    <linearGradient
       id="linearGradient8589-4-3">
      <stop
         id="stop8591-7-2"
         style="stop-color:#fefefe;stop-opacity:1"
         offset="0" />
      <stop
         id="stop8593-2-4"
         style="stop-color:#cbcbcb;stop-opacity:1"
         offset="1" />
    </linearGradient>
    <linearGradient
       x1="32.892288"
       y1="8.0590115"
       x2="36.358372"
       y2="5.4565363"
       id="linearGradient2565"
       xlink:href="#linearGradient8589-4-3"
       gradientUnits="userSpaceOnUse"
       gradientTransform="matrix(3.7541116,0,0,4.0357898,-35.647124,9.9107789)" />
  </defs>
  <g
     id="layer1">
    <path
       d="M 102,116 C 102,120.41828 84.986821,124 63.999998,124 C 43.013178,124 26,120.41828 26,116 C 26,111.58172 43.013178,108 63.999998,108 C 84.986821,108 102,111.58172 102,116 L 102,116 z"
       id="path2589"
       style="opacity:0.3;fill:url(#radialGradient3226);fill-opacity:1;fill-rule:nonzero;stroke:none;stroke-width:0.80000001;marker:none;visibility:visible;display:inline;overflow:visible" />
    <path
       d="M 47.5,97.499139 C 47.5,97.499139 47.897503,108.33774 45.99939,110.86405 C 44.101278,113.39038 40.324379,115.00067 40.324379,115.00067 C 37.900756,115.26607 37.880707,118.50087 40.324379,118.50087 L 87.67543,118.50087 C 90.119102,118.50087 90.099561,115.26268 87.67543,115.00067 C 87.67543,115.00067 83.898695,113.39037 82.000611,110.86405 C 80.102525,108.33775 80.5,97.499139 80.5,97.499139 L 47.516944,97.499139 L 47.5,97.499139 z"
       id="rect1789"
       style="fill:url(#linearGradient3221);fill-opacity:1;fill-rule:nonzero;stroke:url(#linearGradient3223);stroke-width:0.99827462;stroke-linecap:round;stroke-linejoin:round;marker:none;stroke-miterlimit:4;stroke-dasharray:none;stroke-dashoffset:0.50000001;stroke-opacity:1;visibility:visible;display:inline;overflow:visible;enable-background:new" />
    <path
       d="M 40.524811,117.5 L 87.475189,117.5"
       id="path3340"
       style="fill:none;stroke:url(#linearGradient3218);stroke-width:1px;stroke-linecap:square;stroke-linejoin:miter;stroke-opacity:1" />
    <rect
       width="124.99976"
       height="87.999352"
       rx="2.7777872"
       ry="2.6666665"
       x="1.5001197"
       y="9.5005283"
       id="rect2722"
       style="fill:#1a1a1a;fill-opacity:1;stroke:url(#linearGradient3234);stroke-width:1.00023937;stroke-linecap:round;stroke-linejoin:round;stroke-miterlimit:4;stroke-dasharray:none;stroke-dashoffset:0.50000001;stroke-opacity:1" />
    <rect
       width="112"
       height="75"
       x="8"
       y="16"
       id="rect2716"
       style="fill:url(#radialGradient3257);fill-opacity:1;fill-rule:evenodd;stroke:none;display:inline;enable-background:new" />
    <rect
       width="122.99976"
       height="85.999763"
       rx="2.7333424"
       ry="2.6060724"
       x="2.5001197"
       y="10.500322"
       id="rect3248"
       style="opacity:0.3;fill:none;fill-opacity:1;stroke:#000000;stroke-width:1.00023937;stroke-linecap:round;stroke-linejoin:round;stroke-miterlimit:4;stroke-dasharray:none;stroke-dashoffset:0.50000001;stroke-opacity:1" />
    <path
       d="M 8,16 C 29.90907,16 52.208394,16.242424 74.117462,16.242424 C 77.96081,17.45587 114.60833,43.959871 120,53.531901 C 120,82.828638 120,61.703264 120,91 C 88.130042,91 39.869953,91 8,91 C 8,53.499984 8,53.500013 8,16 L 8,16 z"
       id="path4322"
       style="fill:url(#radialGradient2545);fill-opacity:1;fill-rule:evenodd;stroke:none;stroke-width:1.00213289;stroke-linecap:round;stroke-linejoin:round;marker:none;marker-start:none;marker-mid:none;marker-end:none;stroke-miterlimit:4;stroke-dasharray:none;stroke-dashoffset:0;stroke-opacity:1;visibility:visible;display:inline;overflow:visible;enable-background:accumulate" />
    <path
       d="M 2,10 L 126,10 L 126,38.800015 L 2,64 L 2,10 z"
       id="rect6588"
       style="fill:url(#linearGradient3254);fill-opacity:1;stroke:none" />
    <path
       d="M 27.681154,12.290465 C 31.319737,11.940264 30.524386,26.3105 30.524386,26.3105 C 30.524386,26.3105 46.617605,25.462039 47.049193,28.264838 C 50.89994,24.995934 30.395686,11.503765 27.681154,12.290465 z"
       transform="matrix(2.6146944,0,0,2.6289693,-2.9298141,-16.737518)"
       id="path4891"
       style="opacity:0.3;fill:#000000;fill-opacity:1;fill-rule:evenodd;stroke:none;stroke-width:1.5;stroke-linecap:butt;stroke-linejoin:round;stroke-miterlimit:4;stroke-dasharray:none;stroke-opacity:0.44444442;display:inline;filter:url(#filter3198)" />
    <path
       d="M 72.357285,16.15741 C 81.687702,17.880847 80.707016,48.132661 80.707016,48.132661 C 80.707016,48.132661 119.06792,46.136485 119.99651,55.041493 C 122.40834,49.801741 92.127698,23.315065 77.234302,17.351212 C 75.320568,16.584886 73.660893,16.15741 72.357285,16.15741 z"
       id="path4893"
       style="fill:url(#linearGradient2565);fill-opacity:1;fill-rule:evenodd;stroke:none;display:inline" />
  </g>
</svg>
